app/images/dist/wait.svg

<svg width="48" height="48" viewBox="0 0 48 48" fill="none" xmlns="http://www.w3.org/2000/svg">
<path d="M39.0367 10.2751C40.88 10.2751 42.3742 8.78085 42.3742 6.9376C42.3742 5.09435 40.88 3.6001 39.0367 3.6001C37.1935 3.6001 35.6992 5.09435 35.6992 6.9376C35.6992 8.78085 37.1935 10.2751 39.0367 10.2751Z" fill="#DC143C"/>
<path d="M43.1234 16.7252C43.1234 13.9127 41.0609 11.6252 38.4359 11.1752C38.4359 11.1752 38.0984 11.1377 38.0234 11.1377C36.9734 11.1377 36.1484 11.9627 36.1484 13.0127C36.1484 13.0502 36.1484 25.5377 36.1484 25.5377C36.1484 26.3252 36.8234 27.0002 37.6109 27.0002C38.3984 27.0002 39.0734 26.3252 39.0734 25.5377V16.1627C39.0734 15.9002 39.2234 15.7502 39.4859 15.7502C39.7484 15.7502 39.8984 15.9002 39.8984 16.1627V25.5752C39.8984 26.1002 39.6734 26.6252 39.4109 27.0377C38.9984 27.5252 38.3609 27.8627 37.6109 27.8627C37.3859 27.8627 37.1984 27.8252 36.9734 27.7877V41.6627C36.9734 42.8252 37.9109 43.7627 39.0734 43.7627C40.2359 43.7627 41.1734 42.8252 41.1734 41.6627V26.2502C41.6984 25.8377 42.1484 25.2002 42.2984 24.5252C42.8234 22.2377 43.1234 19.8002 43.1234 17.3252C43.1609 17.2127 43.1234 16.7627 43.1234 16.7252Z" fill="#DC143C"/>
<path d="M23.025 10.2751C24.8683 10.2751 26.3625 8.78085 26.3625 6.9376C26.3625 5.09435 24.8683 3.6001 23.025 3.6001C21.1818 3.6001 19.6875 5.09435 19.6875 6.9376C19.6875 8.78085 21.1818 10.2751 23.025 10.2751Z" fill="#DC143C"/>
<path d="M27.0766 16.7252C27.0766 13.9127 25.0141 11.6252 22.3891 11.1752C22.3891 11.1752 22.0516 11.1377 21.9766 11.1377C20.9266 11.1377 20.1016 11.9627 20.1016 13.0127C20.1016 13.0502 20.1016 25.5377 20.1016 25.5377C20.1016 26.3252 20.7766 27.0002 21.5641 27.0002C22.3516 27.0002 23.0266 26.3252 23.0266 25.5377V16.1627C23.0266 15.9002 23.1766 15.7502 23.4391 15.7502C23.7016 15.7502 23.8516 15.9002 23.8516 16.1627V25.5752C23.8516 26.1002 23.6266 26.6252 23.3641 27.0377C22.9516 27.5252 22.3141 27.8627 21.5641 27.8627C21.3391 27.8627 21.1516 27.8252 20.9266 27.7877V41.6627C20.9266 42.8252 21.8641 43.7627 23.0266 43.7627C24.1891 43.7627 25.1266 42.8252 25.1266 41.6627V26.2502C25.6516 25.8377 26.1016 25.2002 26.2516 24.5252C26.7766 22.2377 27.0766 19.8002 27.0766 17.3252C27.1141 17.2127 27.0766 16.7627 27.0766 16.7252Z" fill="#DC143C"/>
<path d="M6.97422 10.2751C8.81747 10.2751 10.3117 8.78085 10.3117 6.9376C10.3117 5.09435 8.81747 3.6001 6.97422 3.6001C5.13097 3.6001 3.63672 5.09435 3.63672 6.9376C3.63672 8.78085 5.13097 10.2751 6.97422 10.2751Z" fill="#DC143C"/>
<path d="M11.0258 16.7252C11.0258 13.9127 8.96328 11.6252 6.33828 11.1752C6.33828 11.1752 6.00078 11.1377 5.92578 11.1377C4.87578 11.1377 4.05078 11.9627 4.05078 13.0127C4.05078 13.0502 4.05078 25.5377 4.05078 25.5377C4.05078 26.3252 4.72578 27.0002 5.51328 27.0002C6.30078 27.0002 6.97578 26.3252 6.97578 25.5377V16.1627C6.97578 15.9002 7.12578 15.7502 7.38828 15.7502C7.65078 15.7502 7.80078 15.9002 7.80078 16.1627V25.5752C7.80078 26.1002 7.57578 26.6252 7.31328 27.0377C6.90078 27.5252 6.26328 27.8627 5.51328 27.8627C5.28828 27.8627 5.10078 27.8252 4.87578 27.7877V41.6627C4.87578 42.8252 5.81328 43.7627 6.97578 43.7627C8.13828 43.7627 9.07578 42.8252 9.07578 41.6627V26.2502C9.60078 25.8377 10.0508 25.2002 10.2008 24.5252C10.7258 22.2377 11.0258 19.8002 11.0258 17.3252C11.0633 17.2127 11.0258 16.7627 11.0258 16.7252Z" fill="#DC143C"/>
</svg>

<svg width="48" height="48" fill="none" xmlns="http://www.w3.org/2000/svg"><path d="M39.037 10.275a3.337 3.337 0 1 0 0-6.675 3.337 3.337 0 0 0 0 6.675Zm4.086 6.45c0-2.812-2.062-5.1-4.687-5.55 0 0-.338-.037-.413-.037-1.05 0-1.875.825-1.875 1.875v12.525A1.49 1.49 0 0 0 37.611 27a1.49 1.49 0 0 0 1.462-1.462v-9.375c0-.263.15-.413.413-.413.262 0 .412.15.412.413v9.412c0 .525-.225 1.05-.487 1.463a2.345 2.345 0 0 1-1.8.825c-.225 0-.413-.038-.638-.075v13.875c0 1.162.938 2.1 2.1 2.1 1.163 0 2.1-.938 2.1-2.1V26.25c.525-.412.975-1.05 1.125-1.725.525-2.287.825-4.725.825-7.2.038-.112 0-.562 0-.6Zm-20.098-6.45a3.337 3.337 0 1 0 0-6.675 3.337 3.337 0 0 0 0 6.675Zm4.052 6.45c0-2.812-2.063-5.1-4.688-5.55 0 0-.337-.037-.412-.037-1.05 0-1.875.825-1.875 1.875v12.525A1.49 1.49 0 0 0 21.564 27a1.49 1.49 0 0 0 1.463-1.462v-9.375c0-.263.15-.413.412-.413.263 0 .413.15.413.413v9.412c0 .525-.225 1.05-.488 1.463a2.345 2.345 0 0 1-1.8.825c-.225 0-.412-.038-.637-.075v13.875c0 1.162.937 2.1 2.1 2.1 1.162 0 2.1-.938 2.1-2.1V26.25c.525-.412.975-1.05 1.125-1.725.525-2.287.825-4.725.825-7.2.037-.112 0-.562 0-.6Zm-20.103-6.45a3.337 3.337 0 1 0 0-6.675 3.337 3.337 0 0 0 0 6.675Zm4.052 6.45c0-2.812-2.063-5.1-4.688-5.55 0 0-.337-.037-.412-.037-1.05 0-1.875.825-1.875 1.875v12.525A1.49 1.49 0 0 0 5.513 27a1.49 1.49 0 0 0 1.463-1.462v-9.375c0-.263.15-.413.412-.413.263 0 .413.15.413.413v9.412c0 .525-.225 1.05-.488 1.463a2.345 2.345 0 0 1-1.8.825c-.225 0-.412-.038-.637-.075v13.875c0 1.162.937 2.1 2.1 2.1 1.162 0 2.1-.938 2.1-2.1V26.25c.525-.412.975-1.05 1.125-1.725.525-2.287.825-4.725.825-7.2.037-.112 0-.562 0-.6Z" fill="#DC143C"/></svg>
